swiss/communes/5071.svg

<svg xmlns="http://www.w3.org/2000/svg" xmlns:xlink="http://www.w3.org/1999/xlink" height="763" width="603" version="1.0"><defs><radialGradient xlink:href="#a" id="b" gradientUnits="userSpaceOnUse" gradientTransform="matrix(1.21503 0 0 1.26667 -839.192 -490.49)" cx="858.042" cy="579.933" fx="858.042" fy="579.933" r="300"/><linearGradient id="a"><stop style="stop-color:#fff;stop-opacity:.3137255" offset="0"/><stop offset=".19" style="stop-color:#fff;stop-opacity:.25098041"/><stop style="stop-color:#6b6b6b;stop-opacity:.1254902" offset=".6"/><stop style="stop-color:#000;stop-opacity:.1254902" offset="1"/></linearGradient></defs><g style="opacity:1"><path style="opacity:1;fill:#fcef3c" d="M1.5 1.5v458.868c0 166.311 134.314 301.132 300 301.132s300-134.821 300-301.132V1.5H1.5z"/><path style="opacity:1;fill:#fff;stroke:#000;stroke-width:3" d="M566.5 460.368c0 71.111-27.581 137.959-77.663 188.23C438.79 698.834 372.259 726.5 301.5 726.5c-70.76 0-137.29-27.666-187.337-77.901C64.082 598.327 36.5 531.479 36.5 460.368V36.5h530v423.868z"/></g><g style="opacity:1"><path style="fill:#e20909;stroke:#000;stroke-width:2.75;stroke-linecap:round;stroke-linejoin:round" d="M566.5 306.938H353.406V36.5H249.5v270.438h-213v104.031h213v310.439a266.642 266.642 0 0 0 52 5.092c17.628 0 34.992-1.719 51.906-5.074V410.969H566.5V306.938z"/><path style="fill:#e20909;stroke:#000;stroke-width:2.75;stroke-linecap:round;stroke-linejoin:round" d="M140.682 94H60.839v8.649s22.251 3.786 22.251 26.331v102.476c0 22.546-22.251 26.332-22.251 26.332v8.648h78.783c49.646 0 78.031-47.568 78.031-87.029S186.396 94 140.682 94zm30.198 110.97c-1.345 0-2.493.193-3.489.525-2.229 23.865-9.22 45.806-30.265 45.806h-18.542V107.514h17.483c20.625 0 28.306 21.635 30.988 45.256 1.076.673 2.335 1.075 3.825 1.075 13.836 0 25.052 11.445 25.052 25.562.001 14.117-11.216 25.563-25.052 25.563z"/></g><g style="display:inline"><path style="fill:url(#b);fill-opacity:1" d="M1.5 1.5v458.868c0 166.31 134.315 301.132 300 301.132s300-134.821 300-301.132V1.5H1.5z"/></g><g style="display:inline"><path style="fill:none;fill-opacity:1;stroke:#000;stroke-width:3;stroke-miterlimit:4;stroke-dasharray:none;stroke-opacity:1" d="M1.5 1.5v458.868c0 166.31 134.315 301.132 300 301.132s300-134.821 300-301.132V1.5H1.5z"/></g></svg>

<?xml version="1.0" encoding="UTF-8" standalone="no"?>
<svg
   xmlns:i="http://ns.adobe.com/AdobeIllustrator/10.0/"
   xmlns:dc="http://purl.org/dc/elements/1.1/"
   xmlns:cc="http://web.resource.org/cc/"
   xmlns:rdf="http://www.w3.org/1999/02/22-rdf-syntax-ns#"
   xmlns:svg="http://www.w3.org/2000/svg"
   xmlns="http://www.w3.org/2000/svg"
   xmlns:xlink="http://www.w3.org/1999/xlink"
   xmlns:sodipodi="http://sodipodi.sourceforge.net/DTD/sodipodi-0.dtd"
   xmlns:inkscape="http://www.inkscape.org/namespaces/inkscape"
   height="763"
   width="603"
   version="1.0"
   id="svg20"
   sodipodi:version="0.32"
   inkscape:version="0.44"
   sodipodi:docname="Dalpe-coat_of_arms.svg"
   sodipodi:docbase="C:\Documents and Settings\Steve\Bureau\Blasons Suisse pour Wikimedia (par Delta-9)\Communes\[TI]\District de la Leventine">
  <metadata
     id="metadata31">
    <rdf:RDF>
      <cc:Work
         rdf:about="">
        <dc:format>image/svg+xml</dc:format>
        <dc:type
           rdf:resource="http://purl.org/dc/dcmitype/StillImage" />
        <dc:date>07-AUG-2006</dc:date>
        <dc:creator>
          <cc:Agent>
            <dc:title>Jérôme BLUM (wagner51)</dc:title>
          </cc:Agent>
        </dc:creator>
        <cc:license
           rdf:resource="http://creativecommons.org/licenses/GPL/2.0/" />
        <dc:coverage />
        <dc:description>Gabarit pour le Projet:Blasons de WIkipédia</dc:description>
        <dc:subject>
          <rdf:Bag>
            <rdf:li>blason suisse modèle gabarit projet blasons</rdf:li>
          </rdf:Bag>
        </dc:subject>
        <dc:language>fr</dc:language>
        <dc:title>Gabrit d'un blason suisse</dc:title>
      </cc:Work>
      <cc:License
         rdf:about="http://creativecommons.org/licenses/GPL/2.0/">
        <cc:permits
           rdf:resource="http://web.resource.org/cc/Reproduction" />
        <cc:permits
           rdf:resource="http://web.resource.org/cc/Distribution" />
        <cc:requires
           rdf:resource="http://web.resource.org/cc/Notice" />
        <cc:permits
           rdf:resource="http://web.resource.org/cc/DerivativeWorks" />
        <cc:requires
           rdf:resource="http://web.resource.org/cc/ShareAlike" />
        <cc:requires
           rdf:resource="http://web.resource.org/cc/SourceCode" />
      </cc:License>
    </rdf:RDF>
  </metadata>
  <defs
     id="defs29"><linearGradient
   id="linearGradient2893">
  <stop
     style="stop-color:#ffffff;stop-opacity:0.3137255;"
     offset="0"
     id="stop2895" />
  <stop
     id="stop2897"
     offset="0.19"
     style="stop-color:#ffffff;stop-opacity:0.25098041;" />
  <stop
     style="stop-color:#6b6b6b;stop-opacity:0.1254902;"
     offset="0.60000002"
     id="stop2901" />
  <stop
     style="stop-color:#000000;stop-opacity:0.1254902;"
     offset="1"
     id="stop2899" />
</linearGradient>
<linearGradient
   id="linearGradient2955">
  <stop
     style="stop-color:white;stop-opacity:0;"
     offset="0"
     id="stop2965" />
  <stop
     style="stop-color:black;stop-opacity:0.64583331;"
     offset="1"
     id="stop2959" />
</linearGradient>
<radialGradient
   inkscape:collect="always"
   xlink:href="#linearGradient2893"
   id="radialGradient3236"
   gradientUnits="userSpaceOnUse"
   gradientTransform="matrix(1.215027,1.531577e-24,1.464684e-23,1.266667,-839.1924,-490.4894)"
   cx="858.04236"
   cy="579.93323"
   fx="858.04236"
   fy="579.93323"
   r="300" />

			<foreignObject
   requiredExtensions="http://ns.adobe.com/AdobeIllustrator/10.0/"
   x="0"
   y="0"
   width="1"
   height="1"
   id="foreignObject1955">
				<i:pgfRef
   xlink:href="#adobe_illustrator_pgf">
				</i:pgfRef>

			</foreignObject>

			
		
				
			
					
					
					
					
				</defs>
  <sodipodi:namedview
     inkscape:window-height="691"
     inkscape:window-width="939"
     inkscape:pageshadow="2"
     inkscape:pageopacity="0.0"
     guidetolerance="10.0"
     gridtolerance="10.0"
     objecttolerance="10.0"
     borderopacity="1.0"
     bordercolor="#666666"
     pagecolor="#ffffff"
     id="base"
     inkscape:zoom="0.4300232"
     inkscape:cx="159.98738"
     inkscape:cy="336.24121"
     inkscape:window-x="20"
     inkscape:window-y="42"
     inkscape:current-layer="layer2"
     showgrid="false"
     showguides="true"
     inkscape:guide-bbox="true" />
  <desc
     id="desc22">Coat of Arms of Canton of Freiburg (Fribourg)</desc>
  <g
     inkscape:groupmode="layer"
     id="layer1"
     inkscape:label="Fond écu"
     style="opacity:1"
     sodipodi:insensitive="true">
    <path
       style="opacity:1;fill:#fcef3c"
       id="path1976"
       i:knockout="Off"
       d="M 1.5,1.5 L 1.5,460.368 C 1.5,626.679 135.814,761.5 301.5,761.5 C 467.186,761.5 601.5,626.679 601.5,460.368 L 601.5,1.5 L 1.5,1.5 z " />
    <path
       style="opacity:1;fill:white;stroke:black;stroke-width:3"
       i:knockout="Off"
       d="M 566.5,460.368 C 566.5,531.479 538.919,598.327 488.837,648.598 C 438.79,698.834 372.259,726.5 301.5,726.5 C 230.74,726.5 164.21,698.834 114.163,648.599 C 64.082,598.327 36.5,531.479 36.5,460.368 C 36.5,460.368 36.5,96.229 36.5,36.5 L 566.5,36.5 C 566.5,96.229 566.5,460.368 566.5,460.368 z "
       id="path1961" />
  </g>
  <g
     inkscape:groupmode="layer"
     id="layer2"
     inkscape:label="Meubles"
     style="opacity:1"
     sodipodi:insensitive="true">
    <path
       style="fill:#e20909;stroke:black;stroke-width:2.75;stroke-linecap:round;stroke-linejoin:round"
       d="M 566.5,306.938 L 353.406,306.938 L 353.406,36.5 L 249.5,36.5 L 249.5,306.938 L 36.5,306.938 L 36.5,410.969 L 249.5,410.969 L 249.5,721.408 C 266.443,724.775 283.84,726.5 301.5,726.5 C 319.128,726.5 336.492,724.781 353.406,721.426 L 353.406,410.969 L 566.5,410.969 L 566.5,306.938 z "
       id="path1963" />
    <path
       style="fill:#e20909;stroke:black;stroke-width:2.75;stroke-linecap:round;stroke-linejoin:round"
       d="M 140.682,94 C 131.973,94 124.687,94 118.585,94 L 88.234,94 L 60.839,94 L 60.839,102.649 C 60.839,102.649 83.09,106.435 83.09,128.98 L 83.09,231.456 C 83.09,254.002 60.839,257.788 60.839,257.788 L 60.839,266.436 L 104.656,266.436 L 118.584,266.436 C 123.646,266.436 130.461,266.436 139.622,266.436 C 189.268,266.436 217.653,218.868 217.653,179.407 C 217.653,139.946 186.396,94 140.682,94 z M 170.88,204.97 C 169.535,204.97 168.387,205.163 167.391,205.495 C 165.162,229.36 158.171,251.301 137.126,251.301 L 118.584,251.301 L 118.584,107.514 C 123.492,107.514 129.307,107.514 136.067,107.514 C 156.692,107.514 164.373,129.149 167.055,152.77 C 168.131,153.443 169.39,153.845 170.88,153.845 C 184.716,153.845 195.932,165.29 195.932,179.407 C 195.933,193.524 184.716,204.97 170.88,204.97 z "
       id="path1965" />
  </g>
  <g
     inkscape:groupmode="layer"
     id="layer3"
     inkscape:label="Reflet final"
     style="display:inline"
     sodipodi:insensitive="true">
    <path
       style="fill:url(#radialGradient3236);fill-opacity:1"
       d="M 1.5,1.5 L 1.5,460.3679 C 1.5,626.67854 135.81454,761.5 301.49993,761.5 C 467.1854,761.5 601.5,626.67854 601.5,460.3679 L 601.5,1.5 L 1.5,1.5 z "
       id="path2346" />
  </g>
  <g
     inkscape:groupmode="layer"
     id="layer4"
     inkscape:label="Contour final"
     style="display:inline"
     sodipodi:insensitive="true">
    <path
       style="fill:none;fill-opacity:1;stroke:#000000;stroke-width:3;stroke-miterlimit:4;stroke-dasharray:none;stroke-opacity:1"
       d="M 1.5,1.5 L 1.5,460.36794 C 1.5,626.67854 135.81454,761.5 301.49993,761.5 C 467.1854,761.5 601.5,626.67854 601.5,460.36794 L 601.5,1.5 L 1.5,1.5 z "
       id="path3239" />
  </g>
</svg>
